X: 20027
T: Jimmy Doyle's
R: polka
M: 2/4
K: Gmajor
Bd de|dB BA/B/|dB BA/B/|dB AG|
Bd de|dB BA/B/|dB BA|AG G2:|
dg g2|fe e/f/g/e/|ed Bd|ed BA|
dg g2|fe e/f/g/e/|dB BA|AG G2:|

